!!!OTL: ES RITT EIN LANDSKNAB UEBER FELD
!!!ARE: Europa, Mitteleuropa, Deutschland, Koenigsberg, Uderwangen
!!!SCT: E0042I
!!!YEM: Copyright 1995, estate of Helmut Schaffrath.
**kern
*ICvox
*Ivox
*M6/8
*k[b-]
*F:
{8f
=1
4a
8f
4a
8b-
=2
4.cc
4cc}
{8ff
=3
4cc
8a
4b-
8a
=4
4.a
4g
8r
=5
4f
8a
4cc}
{8ff
=6
4cc
8a
4b-
8a
=7
4.g
4f}
==
!!!AGN: erzaehlendes Volks - Lied, Ritter -, Raeuber - Sage, Ballade ?
!!!ONB: ESAC (Essen Associative Code) Database: ERK1
!!!AMT: compound duple
!!!AIN: vox
!!!EED: Helmut Schaffrath
!!!EEV: 1.0
*-
